symbols/web/unarchive/materialsymbolssharp/unarchive_wght600gradN25_48px.svg

<svg xmlns="http://www.w3.org/2000/svg" height="48" width="48"><path d="M5.5 42.5V11.2l4.45-5.85h28.1l4.45 5.85v31.3Zm4.6-31h27.8l-1.8-2.3H11.85Zm-.75 27.15h29.3v-24.3H9.35Zm13.05-3.9h3.3v-9.7l4.05 4.05 2.3-2.35L24 18.7l-8.05 8.05 2.35 2.35 4.1-4.05Zm-13.05 3.9v-24.3 24.3Z"/></svg>

<svg xmlns="http://www.w3.org/2000/svg" height="48" width="48"><path d="M5.5 42.5V11.2L9.95 5.35H38.05L42.5 11.2V42.5ZM10.1 11.5H37.9L36.1 9.2H11.85ZM9.35 38.65H38.65V14.35H9.35ZM22.4 34.75H25.7V25.05L29.75 29.1L32.05 26.75L24 18.7L15.95 26.75L18.3 29.1L22.4 25.05ZM9.35 38.65V14.35V38.65Z"/></svg>
